icons/message/message-round.svg

<svg width="14" height="14" viewBox="0 0 14 14" fill="none" xmlns="http://www.w3.org/2000/svg">
<path d="M9.85254 10.2832L9.60924 9.84639C9.73191 9.77806 9.87766 9.76447 10.0108 9.80893L9.85254 10.2832ZM12 11L12.4903 10.9021C12.5252 11.0769 12.4644 11.257 12.3308 11.375C12.1971 11.4929 12.0108 11.5307 11.8417 11.4743L12 11ZM11.5371 8.68164L11.0468 8.77954C11.0229 8.66011 11.0435 8.53608 11.1046 8.43073L11.5371 8.68164ZM7 3V3.5C4.40484 3.5 2.5 5.16535 2.5 7H2H1.5C1.5 4.41637 4.07232 2.5 7 2.5V3ZM2 7H2.5C2.5 8.83465 4.40484 10.5 7 10.5V11V11.5C4.07232 11.5 1.5 9.58363 1.5 7H2ZM7 11V10.5C7.97782 10.5 8.87635 10.2546 9.60924 9.84639L9.85254 10.2832L10.0958 10.72C9.21032 11.2132 8.14369 11.5 7 11.5V11ZM9.85254 10.2832L10.0108 9.80893L12.1583 10.5257L12 11L11.8417 11.4743L9.69423 10.7575L9.85254 10.2832ZM12 11L11.5097 11.0979L11.0468 8.77954L11.5371 8.68164L12.0274 8.58374L12.4903 10.9021L12 11ZM11.5371 8.68164L11.1046 8.43073C11.3605 7.98975 11.5 7.50614 11.5 7H12H12.5C12.5 7.6955 12.3071 8.35088 11.9696 8.93255L11.5371 8.68164ZM12 7H11.5C11.5 5.16535 9.59516 3.5 7 3.5V3V2.5C9.92768 2.5 12.5 4.41637 12.5 7H12Z" fill="red"/>
</svg>

<svg xmlns="http://www.w3.org/2000/svg" width="14" height="14" fill="none" viewBox="0 0 14 14"><path fill="red" d="m9.853 10.283-.244-.437a.5.5 0 0 1 .402-.037zM12 11l.49-.098a.5.5 0 0 1-.648.572zm-.463-2.318-.49.098a.5.5 0 0 1 .058-.35zM7 3v.5C4.405 3.5 2.5 5.165 2.5 7h-1c0-2.584 2.572-4.5 5.5-4.5zM2 7h.5c0 1.835 1.905 3.5 4.5 3.5v1c-2.928 0-5.5-1.916-5.5-4.5zm5 4v-.5a5.4 5.4 0 0 0 2.61-.654l.243.437.243.437A6.4 6.4 0 0 1 7 11.5zm2.853-.717.158-.474 2.147.717L12 11l-.158.474-2.148-.716zM12 11l-.49.098-.463-2.318.49-.098.49-.098.463 2.318zm-.463-2.318-.432-.251c.255-.441.395-.925.395-1.431h1a3.84 3.84 0 0 1-.53 1.933zM12 7h-.5c0-1.835-1.905-3.5-4.5-3.5v-1c2.928 0 5.5 1.916 5.5 4.5z"/></svg>
